X:1
T:The Cape Breton Fiddler's Welcome to Shetland
R:reel
C:Willie Hunter
O:20th Century Scottish (Shetland)
D:Leaving Lerwick Harbour, Willie Hunter
H:Copyrights - Publisher: greentrax@aol.com
Z:Paul Stewart Cranford (P.S.C.), <http://www.cranfordpub.com>
Q:333
L:1/8
M:C|
K:A
F|EC C/C/C ({C} D)CB,C|A,B,CE FECE|FB B/B/B BcBA|Bf fe f2 fg|
ac c/c/c eA A/A/A|cBAF EC C/C/C|FGAF faaf|ecBc A3:|
||g|:ae e/e/e efed|ce e/e/e fece|bf f/f/f fgfe|defd B2 fg|
[1ae e/e/e efed|ce e/e/e fece|fdge afed|cdBc Aefg:|
[2ae e/e/e efed|ce e/e/e fece|fdec dBcA|Bagf eAG|]
"FINAL TIME USES TAG ENDING"|:F|EC C/C/C ({C} D)CB,C|A,B,CE FECE|FB B/B/B BcBA|Bf fe f2 fg|
ac c/c/c eA A/A/A|cBAF EC C/C/C|FGAF faaf|ecBc A3:|
g|:ae e/e/e efed|ce e/e/e fece|bf f/f/f fgfe|1defd B2 fg|
ae e/e/e efed|ce e/e/e fece|fdge afed|cdBc aefg:|
[2defd B2 ed|cdBc ABGA|FGEF DECD|B,CDE FABc|defg a3|]
% if none of this makes sense, go to http://www.cranfordpub.com/tunes/abcs
